dist/img/smile.svg

<svg width="57" height="57" viewBox="0 0 57 57" fill="none" xmlns="http://www.w3.org/2000/svg">
<g clip-path="url(#clip0_19_581)">
<rect x="3.3876" y="3.3877" width="49.2248" height="49.2248" rx="8.79014" fill="#FE9563"/>
<path d="M28.1284 12.7456C19.6307 12.7456 12.7457 19.6306 12.7457 28.1283C12.7457 36.6261 19.6307 43.5111 28.1284 43.5111C36.6262 43.5111 43.5112 36.6261 43.5112 28.1283C43.5112 19.6306 36.6262 12.7456 28.1284 12.7456ZM33.0906 23.1662C34.1885 23.1662 35.0755 24.0532 35.0755 25.151C35.0755 26.2489 34.1885 27.1359 33.0906 27.1359C31.9927 27.1359 31.1057 26.2489 31.1057 25.151C31.1057 24.0532 31.9927 23.1662 33.0906 23.1662ZM23.1663 23.1662C24.2641 23.1662 25.1511 24.0532 25.1511 25.151C25.1511 26.2489 24.2641 27.1359 23.1663 27.1359C22.0684 27.1359 21.1814 26.2489 21.1814 25.151C21.1814 24.0532 22.0684 23.1662 23.1663 23.1662ZM35.2492 33.7232C33.4814 35.8445 30.8886 37.0603 28.1284 37.0603C25.3682 37.0603 22.7755 35.8445 21.0077 33.7232C20.1641 32.7122 21.69 31.4468 22.5336 32.4516C23.923 34.1202 25.9575 35.0692 28.1284 35.0692C30.2994 35.0692 32.3339 34.114 33.7233 32.4516C34.5545 31.4468 36.0865 32.7122 35.2492 33.7232Z" fill="#FAFBFC"/>
</g>
<defs>
<clipPath id="clip0_19_581">
<rect width="56.2569" height="56.2569" fill="white"/>
</clipPath>
</defs>
</svg>

<svg width="57" height="57" fill="none" xmlns="http://www.w3.org/2000/svg"><g clip-path="url(#clip0_19_581)"><rect x="3.388" y="3.388" width="49.225" height="49.225" rx="8.79" fill="#FE9563"/><path d="M28.128 12.746c-8.497 0-15.382 6.885-15.382 15.382 0 8.498 6.885 15.383 15.382 15.383 8.498 0 15.383-6.885 15.383-15.383 0-8.497-6.885-15.382-15.383-15.382zm4.963 10.42c1.097 0 1.984.887 1.984 1.985a1.983 1.983 0 01-1.984 1.985 1.983 1.983 0 01-1.985-1.985c0-1.098.887-1.985 1.985-1.985zm-9.925 0c1.098 0 1.985.887 1.985 1.985a1.983 1.983 0 01-1.985 1.985 1.983 1.983 0 01-1.985-1.985c0-1.098.887-1.985 1.985-1.985zM35.25 33.723a9.241 9.241 0 01-7.12 3.337 9.241 9.241 0 01-7.121-3.337c-.844-1.01.682-2.276 1.526-1.271a7.248 7.248 0 005.594 2.617 7.268 7.268 0 005.595-2.617c.831-1.005 2.364.26 1.526 1.271z" fill="#FAFBFC"/></g><defs><clipPath id="clip0_19_581"><path fill="#fff" d="M0 0h56.257v56.257H0z"/></clipPath></defs></svg>
